X: 1151
T: Duncan Davidson with Variations
%R: air, reel
B: Niel Gow & Sons "A Collection of Strathspey Reels, etc." v.1 p.15 (and top 8 staves of p.16)
Z: 2022 John Chambers <jc:trillian.mit.edu>
M: C|
L: 1/16
Q: "Slow"
K: E
% - - - - - - - - - -
% Voice 1 reformatted for 8 lines, for compactness and proofreading.
V: 1 staves=2
|:\
E3GB2c2 B2G2B2c2 | E4 {d}e3c B2G2F2G2 | E3GB2c2 B2G2B2a2 | Tg3aTf2g2 e2e2 e4 ::\
{a}g3f efga b2g2Tf2e2 | d2TB2f2TB2 g2TB2f2TB2 | {a}g3f efga b2g2Tf2e2 | c3a g2Tf2 {ef} e2e2 e4 :|
"^1"|:\
(EFGA) (BGFE) (ecBA) (AGFE) | (EFGA) (BGFE) (ecBA) {G}F4 | (EFGA) (BGFE) (ecBA) GBea | (3bgc' (3bge' {a}g2Tf2 {ef} e2e2 e4 :: .g.e.B.G .E.b.a.g .a.f.c.A .F.a.g.f |
geBG Ebag fedc {c}TB2A2 | GEeB cAfc dBgd ecaf | g>b a/f/g/e/ Tf2(ef) e2e2 e4 "^2":: E3G BG (TGF/G/) BG (TGF/G/) ecBA | E3G BG (TGF/G/) ecBA {G}F4 |
(EGBe) (FAdf) (GB)eg Acfa | (3gba (3gfe (3fag (3fed e2e2 e4 :: (3geB (3EGB (3ega (3bag (3afc (3Fcf (3agf (3c'ba | (3geB (3EGB (3ega (3bag (3fge (3dec {c}B2A2 |
(3GBe (3eBG (3Acf (3fcA (3Bdf (3geB (3cea (3Taga | (3gbe (3caf Tf2(ef) e2e2 e4 "^3":: E6 G2 (cB).A.G B2e2 | E4 EGBe (ge)(bg) {g}f4 | "^P16" E6 BG E2D2C2B,2 |
CecA .G2TF2 E2E2 E4 :: [g2e2][g4e4][f2d2] c2a2 Ta4 | [f2d2][f4d4][e2c2] B2g2 Tg4 | G,B,EB, A,CEC B,EGE CFAF | (3(GAB) (3(cde) G2F2 E2E2 E4 :|
"^4"|:\
(3EGB (3eBG (3EGB (3eBG (3EGB (3eBG (3GBA (3GFE | (3DFA (3dcB (3gfe (3agf (3bge (3dcB (3AGF (3EGB | (3EGB (3eBG (3Acf (3fcA (3Bdf (3Tgfg a3f |
g>b a/f/g/e/ (Tf2ef) e2e2 e4 :: [c'2e2][c'4e4]a2 [f2d2][f4d4]B2 | [b2g2][b4g4][g2e2] [c2A2][c4A4]F2 | Eg (3(Tgfg) Fa (3(Taga) Gb (3(Tbgb) a3f | (3gec' (3bge' g2Tf2 {ef}e2e2 e4 :|
% - - - - - - - - - -
% Voice 2 preserves the staff layout in the book.
V: 2 clef=bass middle=d
|:\
e4e4 e4z4 | e4e4 e4B4 | e4e4 e4e4 | e4b4 e4e4 :: e4e4 e8 | B4B4 B8 |
e4e4 e4g4 | a4b4 e4e4 "^1":||: e4e4 e8 | e4e4 e4B4 | e4e4
e4e4 | e4b2B2 e4e4 :: e8 f4B4 | e8 B4d4 | e2g2a2^a2 b2^b2c'2d'2 |
e'2e2b2G2 e2B2E4 "^2":: e2e2e4 e2e2e4 | e2e2e4 e4b4 | e4B4 e4d2B2 |
e4b2B2 e2B2E4 :: e2e2e4 f2f2d2f2 | e2e2e4 B2B2d2B2 |
e4f4 e4A4 | B2A2B2b2 e2B2E4 "^3":: e2e2e4 e4e4 | e4g2b2 e'2e2b4 |
"^P16"\
e4e4 e2b2a2g2 | a4b2B2 e2B2E4 :: e4z4 c'2c'4b2 | a2f2b2a2 g2e2e'2e2 | z2g2 a3a b2^b2 c'2d'2 | e'2a2b2d2
e2B2E4 "^4":||: e4e4 e2e2e4 | B4e2d2 e2a2b2e2 |
g3g a3a b2^b2 c'2d'2 | e'2e2 b2B2 e2e2e4 :: a2g2f2e2 d2B2b2a2 | g2e2e'2c'2 a2f2d2B2 |
e4d4 e4f2d'2 | e'2ga b2B2 e2B2E4 :|


